X:863
T:Miss Shepherd
R:reel
C:James Scott Skinner (1843-1927)
A:Scotland
Z:id:hn-reel-863
M:C|
L:1/8
K:Ador
A,B,CD E2DC | B,GFG DB,G,B, | A,B,CD E^GAc |1 BA^GB cAA2 :|2 BA^GB cAA ||
^g | a2ed cBAF | G2DC B,A,G,^g | a2ed cBAc | BA^GB cAA^g |
a2ed cBAF | G2DC B,A,G,B, | A,B,CD E^GAc |1 BA^GB cAA :|2 BA^GB cAA2 ||

